X: 41683
T: Used Bullfrog, The
R: reel
M: 4/4
K: Gmajor
D2|:GAGE DEGB|e2 dc dBAG|e2 dB cBAG|EGcB ADEF|
GAGE DEGB|e2 dc dBAG|c2 dc BAGE|DGcB ADEF:|
|:GBed BedG|edge dBAG|Aeag eagc|agef gedB|
GBed BedG|edge dcBG|cAdc BAGE|DGBA GDEF:|

